pico_icons/symbolic/status/user-status-pending-symbolic.svg

<?xml version="1.0" encoding="UTF-8"?>
<svg height="16px" viewBox="0 0 16 16" width="16px" xmlns="http://www.w3.org/2000/svg">
    <g fill="#2e3436">
        <path d="m 3 6 c -1.105469 0 -2 0.894531 -2 2 s 0.894531 2 2 2 s 2 -0.894531 2 -2 s -0.894531 -2 -2 -2 z m 5 0 c -1.105469 0 -2 0.894531 -2 2 s 0.894531 2 2 2 s 2 -0.894531 2 -2 s -0.894531 -2 -2 -2 z m 5 0 c -1.105469 0 -2 0.894531 -2 2 s 0.894531 2 2 2 s 2 -0.894531 2 -2 s -0.894531 -2 -2 -2 z m 0 0"/>
        <path d="m 3 1 c -1.644531 0 -3 1.355469 -3 3 v 1 h 16 v -1 c 0 -1.644531 -1.355469 -3 -3 -3 z m -2.824219 10 c 0.417969 1.160156 1.53125 2 2.824219 2 h 1 v 3 l 3 -3 h 6 c 1.292969 0 2.40625 -0.839844 2.824219 -2 z m 0 0" fill-opacity="0.34902"/>
    </g>
</svg>

<svg xmlns="http://www.w3.org/2000/svg" width="16" height="16" version="1.1">
 <path style="fill:#fff1e8" d="M 3,6 C 1.89,6 1,6.89 1,8 1,9.1 1.89,10 3,10 4.11,10 5,9.1 5,8 5,6.89 4.11,6 3,6 Z M 8,6 C 6.89,6 6,6.89 6,8 6,9.1 6.89,10 8,10 9.11,10 10,9.1 10,8 10,6.89 9.11,6 8,6 Z M 13,6 C 11.89,6 11,6.89 11,8 11,9.1 11.89,10 13,10 14.11,10 15,9.1 15,8 15,6.89 14.11,6 13,6 Z"/>
 <path style="opacity:.35;fill:#fff1e8" d="M 8,2 C 6.34,2 5,3.34 5,5 5,5 5,5 5,5 H 11 C 11,5 11,5 11,5 11,3.34 9.66,2 8,2 Z M 3.84,11 C 2.01,12.19 2,14 2,14 V 15 H 14 V 14 C 14,14 13.99,12.19 12.16,11 Z"/>
</svg>
